src/Pure-Dark/24/symbolic/status/airplane-mode-symbolic.svg

<?xml version="1.0" encoding="UTF-8" standalone="no"?>
<svg
   width="24"
   height="24"
   version="1.1"
   id="svg1"
   sodipodi:docname="airplane-mode-symbolic.svg"
   inkscape:version="1.4.2 (ebf0e940d0, 2025-05-08)"
   xmlns:inkscape="http://www.inkscape.org/namespaces/inkscape"
   xmlns:sodipodi="http://sodipodi.sourceforge.net/DTD/sodipodi-0.dtd"
   xmlns="http://www.w3.org/2000/svg"
   xmlns:svg="http://www.w3.org/2000/svg">
  <defs
     id="defs1">
    <style
       id="current-color-scheme"
       type="text/css">
        .ColorScheme-Text { color:#f2f2f2; }
        .ColorScheme-NegativeText { color:#da4453; }
     </style>
  </defs>
  <sodipodi:namedview
     id="namedview1"
     pagecolor="#ffffff"
     bordercolor="#000000"
     borderopacity="0.25"
     inkscape:showpageshadow="2"
     inkscape:pageopacity="0.0"
     inkscape:pagecheckerboard="0"
     inkscape:deskcolor="#d1d1d1"
     inkscape:zoom="33.125"
     inkscape:cx="12"
     inkscape:cy="12"
     inkscape:window-width="1920"
     inkscape:window-height="1010"
     inkscape:window-x="0"
     inkscape:window-y="0"
     inkscape:window-maximized="1"
     inkscape:current-layer="svg1" />
  <path
     id="path1"
     style="fill:currentColor"
     class="ColorScheme-Text"
     d="M 11.335938,4 11.21875,4.00195 a 1.0001,1.0001 0 0 0 -0.113281,0.00781 c -0.62496,0.078164 -1.085913,0.671905 -1.007813,1.296875 a 1.0001,1.0001 0 0 0 0,0.00977 l 0.673828,4.968751 -2.630859,0.07813 L 7.1816406,8.6855469 C 6.9400306,8.2627469 6.48694,8 6,8 A 1.0001,1.0001 0 0 0 5,9 v 1.5 0.06641 C 4.41978,10.787326 4,11.3526 4,12 c 0,0.64764 0.41935,1.212994 1,1.433594 V 13.5 14 15 a 1.0001,1.0001 0 0 0 1.1054688,0.994141 l 0.076172,-0.0078 a 1.0001,1.0001 0 0 0 0.1054688,-0.01758 c 0.37375,-0.08066 0.7011712,-0.315807 0.8945312,-0.654297 l 0.9589842,-1.679698 2.630859,0.07813 -0.673828,4.992187 a 1.0001,1.0001 0 0 0 -0.0098,0.132813 C 10.087895,19.467951 10.61983,20 11.25,20 h 0.0957 c 0.59272,0 1.134947,-0.355817 1.373047,-0.898438 h 0.002 l 2.490235,-5.24414 2.804687,0.09375 a 1.0001,1.0001 0 0 0 0.0332,0 C 19.114428,13.951172 20,13.0656 20,12 a 1.0001,1.0001 0 0 0 0,-0.002 1.0001,1.0001 0 0 0 0,-0.0019 1.0001,1.0001 0 0 0 0,-0.002 1.0001,1.0001 0 0 0 0,-0.0019 1.0001,1.0001 0 0 0 0,-0.002 1.0001,1.0001 0 0 0 0,-0.0019 1.0001,1.0001 0 0 0 0,-0.002 1.0001,1.0001 0 0 0 0,-0.0019 v -0.03125 a 1.0001,1.0001 0 0 0 -0.002,-0.01758 c -0.03546,-1.065 -0.948672,-1.920266 -2.013672,-1.884766 l -2.773437,0.0918 -2.490235,-5.2441403 h -0.002 C 12.48057,4.3557875 11.938383,4 11.345703,4 a 1.0001,1.0001 0 0 0 -0.0098,0 z m 0.0098,1 c 0.19865,0 0.379364,0.1168381 0.458984,0.2988281 l 2.783199,5.8632809 3.429687,-0.113281 C 18.542578,11.031328 18.9825,11.44391 19,11.96875 V 12 c 0,0.5251 -0.426072,0.951172 -0.951172,0.951172 l -3.460937,-0.115234 -2.783203,5.865234 C 11.725058,18.883172 11.544353,19 11.345703,19 H 11.25 c -0.08952,0 -0.162109,-0.07261 -0.162109,-0.162109 l 0.822265,-6.091797 -4.3398435,-0.126953 -1.2558594,2.199218 c -0.05147,0.0901 -0.1391212,0.152429 -0.2382812,0.173829 L 6,15 v -1 -1 -0.433594 l -0.484375,-0.0332 C 5.227855,12.523603 5,12.2879 5,12 5,11.71206 5.227865,11.476387 5.515625,11.466797 L 6,11.431641 V 11 10 9 C 6.12976,9 6.2500731,9.068982 6.3144531,9.1816406 L 7.5703125,11.380859 11.910156,11.251953 11.089844,5.1816406 c -0.01111,-0.08886 0.0518,-0.1685775 0.140625,-0.1796875 z" />
</svg>

<?xml version="1.0" encoding="UTF-8" standalone="no"?>
<!-- Created with Inkscape (http://www.inkscape.org/) -->

<svg
   width="24"
   height="24"
   viewBox="0 0 24 24"
   version="1.1"
   id="svg5"
   inkscape:version="1.4 (e7c3feb100, 2024-10-09)"
   sodipodi:docname="airplane-mode-symbolic.svg"
   xmlns:inkscape="http://www.inkscape.org/namespaces/inkscape"
   xmlns:sodipodi="http://sodipodi.sourceforge.net/DTD/sodipodi-0.dtd"
   xmlns="http://www.w3.org/2000/svg"
   xmlns:svg="http://www.w3.org/2000/svg">
  <sodipodi:namedview
     id="namedview7"
     pagecolor="#ffffff"
     bordercolor="#666666"
     borderopacity="1.0"
     inkscape:showpageshadow="2"
     inkscape:pageopacity="0.0"
     inkscape:pagecheckerboard="0"
     inkscape:deskcolor="#d1d1d1"
     inkscape:document-units="px"
     showgrid="false"
     showguides="false"
     inkscape:zoom="33.5"
     inkscape:cx="11.985075"
     inkscape:cy="12"
     inkscape:window-width="1920"
     inkscape:window-height="1011"
     inkscape:window-x="0"
     inkscape:window-y="0"
     inkscape:window-maximized="1"
     inkscape:current-layer="svg5" />
  <defs
     id="defs2">
    <style
       id="current-color-scheme"
       type="text/css">
         .ColorScheme-Text { color:#f2f2f2; }
     </style>
    <inkscape:path-effect
       effect="bspline"
       id="path-effect1577"
       is_visible="true"
       lpeversion="1"
       weight="33.333333"
       steps="2"
       helper_size="0"
       apply_no_weight="true"
       apply_with_weight="true"
       only_selected="false"
       uniform="false" />
  </defs>
  <path
     d="m 11.33592,4 -0.11719,0.00195 c -0.03788,4.567e-4 -0.0757,0.00307 -0.11328,0.00781 -0.62496,0.078164 -1.0859,0.67193 -1.0078,1.2969 -1.6e-5,0.00326 -1.6e-5,0.00651 0,0.00977 l 0.67383,4.9688 -2.6309,0.07813 L 7.1816,8.68566 C 6.93999,8.262855 6.48694,8.000105 6,8.000105 c -0.5522619,5.52e-5 -0.9999448,0.4477381 -1,1 v 1.5 0.06641 c -0.58022,0.22092 -1,0.7862 -1,1.4336 0,0.64764 0.41935,1.213 1,1.4336 v 0.06641 0.499999 1 c 2.319e-4,0.593888 0.5149198,1.05673 1.1055,0.99414 l 0.076172,-0.0078 c 0.035445,-0.004 0.070652,-0.0098 0.10547,-0.01758 0.37375,-0.08066 0.70117,-0.31581 0.89453,-0.6543 l 0.95898,-1.679699 2.6309,0.07813 -0.67383,4.992199 c -0.0062,0.044 -0.0095,0.08837 -0.0098,0.13281 4e-6,0.63006 0.53193,1.1621 1.1621,1.1621 h 0.0957 c 0.59272,0 1.1349,-0.35582 1.373,-0.89844 h 0.002 l 2.490201,-5.244099 2.8047,0.09375 c 0.01107,1.83e-4 0.02214,1.83e-4 0.0332,0 1.0656,0 1.9512,-0.8856 1.9512,-1.9512 v -0.0019 -0.002 -0.0019 -0.002 -0.002 -0.0019 -0.002 -0.0019 -0.03125 c -6e-4,-0.0059 -0.0013,-0.01173 -0.002,-0.01758 -0.03546,-1.065 -0.9487,-1.9203 -2.0137,-1.8848 l -2.773417,0.0918 -2.490201,-5.2441 h -0.002 c -0.23818,-0.54265 -0.78032,-0.89844 -1.373,-0.89844 -0.0033,-1.59e-5 -0.0065,-1.59e-5 -0.0098,0 z m 0.0098,1 c 0.19865,0 0.37936,0.11684 0.45898,0.29883 l 2.7832,5.8633 3.4297,-0.11328 c 0.525,-0.0175 0.96492,0.39508 0.98242,0.91992 v 0.03125 c 0,0.5251 -0.42607,0.95117 -0.95117,0.95117 l -3.4609,-0.11523 -2.7832,5.8652 c -0.07963,0.182 -0.26033,0.29883 -0.45898,0.29883 h -0.0957 c -0.08952,0 -0.16211,-0.07261 -0.16211,-0.16211 l 0.82227,-6.0918 -4.3398,-0.12695 -1.2559,2.1992 c -0.05147,0.0901 -0.13912,0.15243 -0.23828,0.17383 l -0.076172,0.0078 v -1 -1 -0.43359 l -0.484413,-0.0332 c -0.28777,-0.0096 -0.51562,-0.2453 -0.51562,-0.5332 0,-0.28794 0.22786,-0.52361 0.51562,-0.5332 l 0.48438,-0.03516 v -0.43164 -1 -1 c 0.12976,0 0.25007,0.068981 0.31445,0.18164 l 1.2559,2.1992 4.3398,-0.12891 -0.82031,-6.0703 c -0.01111,-0.08886 0.05179,-0.16858 0.14062,-0.17969 l 0.11523,-0.00195 z"
     style="fill:currentColor"
     id="path1"
     class="ColorScheme-Text" />
</svg>
